Sources/FrostedUI/Resources/Icons.xcassets/list24.imageset/list-24.svg

<svg width="24" height="24" viewBox="0 0 24 24" fill="none" xmlns="http://www.w3.org/2000/svg" data-fui-icon="true">
  <path
    d="M18.7598 2C20.5492 2 22 3.45083 22 5.24023V18.7598C22 20.5492 20.5492 22 18.7598 22H5.24023C3.45083 22 2 20.5492 2 18.7598V5.24023C2 3.45083 3.45083 2 5.24023 2H18.7598ZM5.24023 3.5C4.27926 3.5 3.5 4.27926 3.5 5.24023V18.7598C3.5 19.7207 4.27926 20.5 5.24023 20.5H18.7598C19.7207 20.5 20.5 19.7207 20.5 18.7598V5.24023C20.5 4.27926 19.7207 3.5 18.7598 3.5H5.24023ZM7.30957 15.0596C7.99987 15.0596 8.55957 15.6193 8.55957 16.3096C8.55944 16.9998 7.99979 17.5595 7.30957 17.5596C6.6193 17.5596 6.0597 16.9998 6.05957 16.3096C6.05957 15.6192 6.61921 15.0596 7.30957 15.0596ZM15.25 15.5596C15.6642 15.5596 16 15.8954 16 16.3096C15.9999 16.7237 15.6641 17.0596 15.25 17.0596H11.75C11.3359 17.0596 11.0001 16.7237 11 16.3096C11 15.8954 11.3358 15.5596 11.75 15.5596H15.25ZM7.30957 11.0596C7.99987 11.0596 8.55957 11.6193 8.55957 12.3096C8.55944 12.9998 7.99979 13.5595 7.30957 13.5596C6.6193 13.5596 6.0597 12.9998 6.05957 12.3096C6.05957 11.6192 6.61921 11.0596 7.30957 11.0596ZM16.25 11.5596C16.6642 11.5596 17 11.8954 17 12.3096C16.9999 12.7237 16.6641 13.0596 16.25 13.0596H11.75C11.3359 13.0596 11.0001 12.7237 11 12.3096C11 11.8954 11.3358 11.5596 11.75 11.5596H16.25ZM7.30957 7.05957C7.99987 7.05964 8.55957 7.61926 8.55957 8.30957C8.55944 8.99977 7.99979 9.5595 7.30957 9.55957C6.6193 9.55957 6.0597 8.99981 6.05957 8.30957C6.05957 7.61921 6.61921 7.05957 7.30957 7.05957ZM17.25 7.55957C17.6642 7.55957 18 7.89536 18 8.30957C17.9999 8.72367 17.6641 9.05957 17.25 9.05957H11.75C11.3359 9.05957 11.0001 8.72367 11 8.30957C11 7.89536 11.3358 7.55957 11.75 7.55957H17.25Z"
    fill="currentColor"
  />
</svg>

<svg xmlns="http://www.w3.org/2000/svg" width="24" height="24" fill="none" data-fui-icon="true" viewBox="0 0 24 24"><path fill="currentColor" d="M18.76 2A3.24 3.24 0 0 1 22 5.24v13.52A3.24 3.24 0 0 1 18.76 22H5.24A3.24 3.24 0 0 1 2 18.76V5.24A3.24 3.24 0 0 1 5.24 2zM5.24 3.5c-.96 0-1.74.78-1.74 1.74v13.52c0 .96.78 1.74 1.74 1.74h13.52c.96 0 1.74-.78 1.74-1.74V5.24c0-.96-.78-1.74-1.74-1.74zm2.07 11.56a1.25 1.25 0 1 1 0 2.5 1.25 1.25 0 0 1 0-2.5m7.94.5a.75.75 0 0 1 0 1.5h-3.5a.75.75 0 0 1 0-1.5zm-7.94-4.5a1.25 1.25 0 1 1 0 2.5 1.25 1.25 0 0 1 0-2.5m8.94.5a.75.75 0 0 1 0 1.5h-4.5a.75.75 0 0 1 0-1.5zm-8.94-4.5a1.25 1.25 0 1 1 0 2.5 1.25 1.25 0 0 1 0-2.5m9.94.5a.75.75 0 0 1 0 1.5h-5.5a.75.75 0 0 1 0-1.5z"/></svg>
